;FLAVOR:UltiGCode
;TIME:7287
;MATERIAL:11472
;MATERIAL2:0
;NOZZLE_DIAMETER:0.4
;Generated with Cura_SteamEngine 2.6.2

;LAYER_COUNT:66
;LAYER:0
M107
G0 F6000 X99.95 Y57.553 Z0.27
;TYPE:SKIRT
G1 F1800 X101.819 Y54.522 E0.33651
G1 X105.27 Y48.199 E1.01723
G1 X105.546 Y47.777 E1.06488
G1 X105.884 Y47.405 E1.11238
G1 X106.278 Y47.09 E1.16005
G1 X106.716 Y46.842 E1.20762
G1 X107.188 Y46.666 E1.25522
G1 X107.682 Y46.567 E1.30283
G1 X108.185 Y46.548 E1.3504
G1 X108.628 Y46.597 E1.39252
G1 X118.447 Y48.393 E2.33581
G1 X118.934 Y48.522 E2.38342
G1 X119.394 Y48.727 E2.43101
G1 X119.816 Y49.002 E2.47861
G1 X120.189 Y49.341 E2.52624
G1 X120.504 Y49.734 E2.57383
G1 X120.752 Y50.172 E2.6214
G1 X120.929 Y50.643 E2.66895
G1 X121.04 Y51.253 E2.72754
G1 X129.437 Y152.413 E12.32004
G1 X129.439 Y152.917 E12.36767
G1 X129.361 Y153.414 E12.41521
G1 X129.205 Y153.893 E12.46281
G1 X128.983 Y154.33 E12.50913
G1 X126.607 Y158.225 E12.94029
G1 X123.13 Y164.549 E13.62228
G1 X123.061 Y164.668 E13.63528
G1 X121.169 Y167.781 E13.97953
G1 X118.244 Y173.202 E14.56163
G1 X117.971 Y173.624 E14.60912
G1 X117.634 Y173.999 E14.65677
G1 X117.146 Y174.378 E14.71516
G1 X112.161 Y177.528 E15.27241
G1 X107.697 Y180.726 E15.79134
G1 X105.783 Y182.216 E16.02056
G1 X105.362 Y182.492 E16.06813
G1 X104.903 Y182.699 E16.11571
G1 X104.417 Y182.831 E16.1633
G1 X103.916 Y182.884 E16.21091
G1 X103.413 Y182.857 E16.25851
G1 X102.921 Y182.751 E16.30607
G1 X102.452 Y182.569 E16.35361
G1 X102.017 Y182.314 E16.40126
G1 X101.628 Y181.995 E16.4488
G1 X101.295 Y181.617 E16.49641
G1 X101.025 Y181.192 E16.54399
G1 X100.826 Y180.729 E16.59161
G1 X100.703 Y180.241 E16.63917
G1 X100.658 Y179.725 E16.68812
G1 X100.348 Y114.94 E22.81037
G1 X100.016 Y109.474 E23.32786
G1 X99.377 Y104.037 E23.84519
G1 X98.43 Y98.642 E24.36282
G1 X97.182 Y93.321 E24.8793
G1 X96.448 Y90.696 E25.13687
G1 X94.741 Y85.457 E25.65758
G1 X92.487 Y79.716 E26.24042
G1 X92.34 Y79.234 E26.28804
G1 X92.272 Y78.735 E26.33563
G1 X92.319 Y77.984 E26.40674
G1 X94.121 Y68.152 E27.35134
G1 X94.251 Y67.665 E27.39897
G1 X94.519 Y67.095 E27.45849
G1 X97.807 Y61.594 E28.06412
G1 X99.846 Y57.736 E28.47649
G1 X99.95 Y57.553 E28.49638
G10
G0 F6000 X101.887 Y59.624
G0 X103.077 Y59.842
G0 X103.347 Y60.233
;TYPE:WALL-INNER
G11
G1 F1800 X111.664 Y61.757 E29.29542
G1 X113.53 Y84.256 E31.42887
G1 X115.21 Y84.181 E31.58779
G1 X115.158 Y71.261 E32.80874
G1 X117.105 Y60.642 E33.82897
G1 X107.27 Y58.838 E34.77388
G1 X108.757 Y50.724 E35.55342
G1 X117.074 Y52.248 E36.35246
G1 X125.298 Y151.387 E45.75328
G1 X125.316 Y151.614 E45.7748
G1 X125.092 Y151.573 E45.78776
G1 X119.022 Y150.46 E46.37094
G1 X119.906 Y161.122 E47.38196
G1 X113.612 Y159.968 E47.98665
G1 X114.497 Y170.63 E48.99768
G1 X104.925 Y168.876 E49.91729
G1 X104.661 Y170.316 E50.05564
G1 X104.656 Y168.878 E50.10748
G1 X104.339 Y90.277 E57.53534
G1 X106.285 Y79.658 E58.55555
G1 X96.45 Y77.855 E59.50044
G1 X97.937 Y69.741 E60.27999
G1 X106.254 Y71.265 E61.07903
G1 X108.12 Y93.764 E63.21248
G1 X109.8 Y93.689 E63.3714
G1 X109.748 Y80.769 E64.59235
G1 X111.664 Y70.322 E65.59606
G1 X111.695 Y70.15 E65.61257
G1 X111.523 Y70.119 E65.62323
G1 X101.86 Y68.347 E66.55161
G1 X103.347 Y60.233 E67.33115
G0 F6000 X103.066 Y59.826
G1 F1800 X111.991 Y61.461 E68.1886
G1 X113.851 Y83.891 E70.31551
G1 X114.859 Y83.846 E70.41086
G1 X114.808 Y71.231 E71.60299
G1 X116.698 Y60.923 E72.59333
G1 X106.863 Y59.119 E73.53825
G1 X108.476 Y50.317 E74.38389
G1 X117.401 Y51.952 E75.24134
G1 X125.685 Y151.813 E84.71061
G1 X125.703 Y152.04 E84.73213
G1 X125.479 Y151.999 E84.7451
G1 X119.633 Y150.928 E85.30674
G1 X119.409 Y150.887 E85.32826
G1 X119.427 Y151.114 E85.34122
G1 X120.275 Y161.321 E86.30911
G1 X120.293 Y161.548 E86.33063
G1 X120.069 Y161.507 E86.34359
G1 X114.223 Y160.436 E86.90523
G1 X113.999 Y160.395 E86.92675
G1 X114.017 Y160.622 E86.93971
G1 X114.866 Y170.829 E87.90761
G1 X114.884 Y171.056 E87.92913
G1 X114.66 Y171.015 E87.94209
G1 X105.206 Y169.283 E88.85036
G1 X104.665 Y172.229 E89.13341
G1 X104.326 Y174.079 E89.31115
G1 X104.32 Y172.199 E89.40036
G1 X104.319 Y172.198 E89.40049
G1 X103.989 Y90.247 E97.14492
G1 X105.878 Y79.939 E98.13525
G1 X96.043 Y78.136 E99.08015
G1 X97.656 Y69.334 E99.92579
G1 X106.581 Y70.969 E100.78324
G1 X108.441 Y93.399 E102.91015
G1 X109.449 Y93.354 E103.0055
G1 X109.398 Y80.739 E104.19762
G1 X111.257 Y70.603 E105.17145
G1 X111.288 Y70.431 E105.18797
G1 X111.116 Y70.4 E105.19862
G1 X101.453 Y68.628 E106.127
G1 X103.066 Y59.826 E106.97264
G0 F6000 X102.805 Y59.447
;TYPE:WALL-OUTER
G1 F1800 X112.294 Y61.186 E107.88429
G1 X114.149 Y83.552 E110.00513
G1 X114.533 Y83.535 E110.04146
G1 X114.483 Y71.2 E111.20712
G1 X116.32 Y61.184 E112.16942
G1 X106.484 Y59.38 E113.11443
G1 X108.215 Y49.938 E114.02157
G1 X117.704 Y51.677 E114.93321
G1 X126.044 Y152.21 E124.46622
G1 X126.062 Y152.437 E124.48774
G1 X125.838 Y152.396 E124.5007
G1 X119.992 Y151.324 E125.06236
G1 X119.768 Y151.283 E125.08388
G1 X119.786 Y151.51 E125.09684
G1 X120.634 Y161.718 E126.06482
G1 X120.652 Y161.945 E126.08634
G1 X120.428 Y161.904 E126.0993
G1 X114.582 Y160.832 E126.66096
G1 X114.358 Y160.791 E126.68248
G1 X114.376 Y161.018 E126.69545
G1 X115.225 Y171.226 E127.66343
G1 X115.243 Y171.453 E127.68495
G1 X115.019 Y171.412 E127.69791
G1 X105.467 Y169.661 E128.61562
G1 X104.354 Y175.726 E129.19833
G1 X104.015 Y177.576 E129.37607
G1 X104.009 Y175.696 E129.46528
G1 X104.008 Y175.695 E129.46541
G1 X103.664 Y90.216 E137.54324
G1 X105.5 Y80.2 E138.50552
G1 X95.836 Y78.428 E139.434
G1 X95.664 Y78.397 E139.45051
G1 X95.695 Y78.225 E139.46117
G1 X97.395 Y68.955 E140.35179
G1 X106.884 Y70.694 E141.26344
G1 X108.739 Y93.06 E143.38428
G1 X109.123 Y93.043 E143.4206
G1 X109.073 Y80.708 E144.58627
G1 X110.879 Y70.864 E145.53206
G1 X110.91 Y70.692 E145.54857
G1 X110.738 Y70.661 E145.55923
G1 X101.246 Y68.92 E146.47118
G1 X101.074 Y68.889 E146.4877
G1 X101.105 Y68.717 E146.49835
G1 X102.805 Y59.447 E147.38898
G0 F6000 X103.001 Y59.483
G0 X103.122 Y59.908
G0 X103.482 Y60.419
;TYPE:SKIN
G1 F1800 X112.109 Y69.046 E148.54192
G1 X112.17 Y69.107
G0 F6000 X112.065 Y68.507
G1 F1800 X104.088 Y60.53 E149.60799
G1 X104.027 Y60.469
G0 F6000 X104.694 Y60.641
G1 F1800 X112.02 Y67.967 E150.58706
G1 X112.081 Y68.028
G0 F6000 X111.975 Y67.427
G1 F1800 X105.3 Y60.752 E151.47913
G1 X105.239 Y60.691
G0 F6000 X105.906 Y60.863
G1 F1800 X111.93 Y66.888 E152.28426
G1 X111.991 Y66.949
G0 F6000 X111.886 Y66.348
G1 F1800 X106.512 Y60.974 E153.00246
G1 X106.451 Y60.913
G0 F6000 X107.118 Y61.085
G1 F1800 X111.84 Y65.808 E153.63359
G1 X111.901 Y65.869
G0 F6000 X111.796 Y65.268
G1 F1800 X107.724 Y61.196 E154.17778
G1 X107.663 Y61.135
G0 F6000 X108.33 Y61.307
G1 F1800 X111.751 Y64.729 E154.63504
G1 X111.812 Y64.79
G0 F6000 X111.706 Y64.189
G1 F1800 X108.936 Y61.418 E155.0053
G1 X108.875 Y61.357
G0 F6000 X109.542 Y61.529
G1 F1800 X111.662 Y63.649 E155.28863
G1 X111.723 Y63.71
G0 F6000 X111.616 Y63.109
G1 F1800 X110.148 Y61.64 E155.48488
G1 X110.087 Y61.579
G0 F6000 X110.754 Y61.751
G1 F1800 X111.572 Y62.569 E155.5942
G1 X111.633 Y62.63
G0 F6000 X111.527 Y62.03
G1 F1800 X111.36 Y61.862 E155.61659
G0 F6000 X113.825 Y83.921
G0 X114.887 Y83.873
G0 X116.73 Y60.901
G0 X112.014 Y59.547
G1 F1800 X108.03 Y55.563 E156.14902
G1 X107.969 Y55.502
G0 F6000 X107.953 Y55.98
G1 F1800 X111.408 Y59.435 E156.61076
G1 X111.469 Y59.496
G0 F6000 X110.802 Y59.324
G1 F1800 X107.876 Y56.399 E157.00173
G1 X107.815 Y56.338
G0 F6000 X107.799 Y56.817
G1 F1800 X110.196 Y59.213 E157.32201
G1 X110.257 Y59.274
G0 F6000 X109.59 Y59.102
G1 F1800 X107.723 Y57.236 E157.57145
G1 X107.662 Y57.175
G0 F6000 X107.646 Y57.653
G1 F1800 X108.984 Y58.991 E157.75027
G1 X109.045 Y59.052
G0 F6000 X108.377 Y58.88
G1 F1800 X107.57 Y58.072 E157.85818
G1 X107.509 Y58.011
G0 F6000 X107.493 Y58.491
G1 F1800 X107.771 Y58.769 E157.89534
G0 F6000 X108.106 Y55.144
G1 F1800 X112.62 Y59.658 E158.4986
G1 X112.681 Y59.719
G0 F6000 X113.226 Y59.769
G1 F1800 X108.183 Y54.726 E159.17256
G1 X108.122 Y54.665
G0 F6000 X108.26 Y54.307
G1 F1800 X113.832 Y59.88 E159.91729
G1 X113.893 Y59.941
G0 F6000 X114.439 Y59.992
G1 F1800 X108.336 Y53.889 E160.73292
G1 X108.275 Y53.828
G0 F6000 X108.413 Y53.471
G1 F1800 X115.045 Y60.103 E161.61924
G1 X115.106 Y60.164
G0 F6000 X115.651 Y60.214
G1 F1800 X108.489 Y53.052 E162.57639
G1 X108.428 Y52.991
G0 F6000 X108.567 Y52.634
G1 F1800 X116.257 Y60.325 E163.60417
G1 X116.318 Y60.386
G0 F6000 X116.863 Y60.436
G1 F1800 X108.643 Y52.216 E164.70272
G1 X108.582 Y52.155
G0 F6000 X108.72 Y51.798
G1 F1800 X117.616 Y60.694 E165.89161
G1 X117.677 Y60.755
G0 F6000 X117.447 Y61.02
G1 F1800 X117.431 Y61.499 E165.9567
G1 X117.766 Y61.834
G0 F6000 X117.75 Y62.313
G1 F1800 X117.081 Y61.644 E166.04611
G1 X117.02 Y61.583
G0 F6000 X117.004 Y62.062
G1 F1800 X117.795 Y62.853 E166.15182
G1 X117.856 Y62.914
G0 F6000 X117.84 Y63.392
G1 F1800 X116.927 Y62.48 E166.27377
G1 X116.866 Y62.419
G0 F6000 X116.85 Y62.898
G1 F1800 X117.885 Y63.933 E166.41209
G1 X117.946 Y63.994
G0 F6000 X117.929 Y64.472
G1 F1800 X116.774 Y63.317 E166.56645
G1 X116.713 Y63.256
G0 F6000 X116.697 Y63.735
G1 F1800 X117.974 Y65.012 E166.73711
G1 X118.035 Y65.073
G0 F6000 X118.019 Y65.552
G1 F1800 X116.621 Y64.153 E166.92401
G1 X116.56 Y64.092
G0 F6000 X116.543 Y64.571
G1 F1800 X118.064 Y66.091 E167.12721
G1 X118.125 Y66.152
G0 F6000 X118.108 Y66.631
G1 F1800 X116.467 Y64.99 E167.34652
G1 X116.406 Y64.929
G0 F6000 X116.39 Y65.408
G1 F1800 X118.154 Y67.171 E167.5822
G1 X118.215 Y67.232
G0 F6000 X118.198 Y67.711
G1 F1800 X116.314 Y65.826 E167.83405
G1 X116.253 Y65.765
G0 F6000 X116.237 Y66.245
G1 F1800 X118.243 Y68.25 E168.10207
G1 X118.304 Y68.311
G0 F6000 X118.287 Y68.79
G1 F1800 X116.16 Y66.663 E168.38633
G1 X116.099 Y66.602
G0 F6000 X116.084 Y67.081
G1 F1800 X118.332 Y69.33 E168.68683
G1 X118.393 Y69.391
G0 F6000 X118.377 Y69.869
G1 F1800 X116.007 Y67.499 E169.00356
G1 X115.946 Y67.438
G0 F6000 X115.93 Y67.918
G1 F1800 X118.422 Y70.409 E169.33653
G1 X118.483 Y70.47
G0 F6000 X118.467 Y70.949
G1 F1800 X115.853 Y68.336 E169.68581
G1 X115.792 Y68.275
G0 F6000 X115.777 Y68.754
G1 F1800 X118.511 Y71.489 E170.05126
G1 X118.572 Y71.55
G0 F6000 X118.556 Y72.028
G1 F1800 X115.7 Y69.172 E170.43294
G1 X115.639 Y69.111
G0 F6000 X115.623 Y69.591
G1 F1800 X118.601 Y72.568 E170.83087
G1 X118.662 Y72.629
G0 F6000 X118.646 Y73.108
G1 F1800 X115.546 Y70.009 E171.24509
G1 X115.485 Y69.948
G0 F6000 X115.47 Y70.427
G1 F1800 X118.69 Y73.647 E171.67542
G1 X118.751 Y73.708
G0 F6000 X118.735 Y74.188
G1 F1800 X115.393 Y70.845 E172.12213
G1 X115.332 Y70.784
G0 F6000 X115.317 Y71.264
G1 F1800 X118.78 Y74.727 E172.58493
G1 X118.841 Y74.788
G0 F6000 X118.825 Y75.267
G1 F1800 X115.317 Y71.759 E173.05375
G1 X115.256 Y71.698
G0 F6000 X115.319 Y72.256
G1 F1800 X118.87 Y75.807 E173.52832
G1 X118.931 Y75.868
G0 F6000 X118.914 Y76.347
G1 F1800 X115.321 Y72.753 E174.00857
G1 X115.26 Y72.692
G0 F6000 X115.323 Y73.25
G1 F1800 X118.959 Y76.886 E174.49449
G1 X119.02 Y76.947
G0 F6000 X119.004 Y77.426
G1 F1800 X115.325 Y73.747 E174.98617
G1 X115.264 Y73.686
G0 F6000 X115.326 Y74.244
G1 F1800 X119.049 Y77.966 E175.48365
G1 X119.11 Y78.027
G0 F6000 X119.093 Y78.505
G1 F1800 X115.329 Y74.741 E175.98669
G1 X115.268 Y74.68
G0 F6000 X115.331 Y75.238
G1 F1800 X119.139 Y79.046 E176.4956
G1 X119.2 Y79.107
G0 F6000 X119.183 Y79.585
G1 F1800 X115.333 Y75.735 E177.01013
G1 X115.272 Y75.674
G0 F6000 X115.335 Y76.232
G1 F1800 X119.228 Y80.125 E177.5304
G1 X119.289 Y80.186
G0 F6000 X119.273 Y80.665
G1 F1800 X115.336 Y76.728 E178.05655
G1 X115.275 Y76.667
G0 F6000 X115.339 Y77.225
G1 F1800 X119.317 Y81.204 E178.58825
G1 X119.378 Y81.265
G0 F6000 X119.362 Y81.744
G1 F1800 X115.341 Y77.723 E179.12563
G1 X115.28 Y77.662
G0 F6000 X115.343 Y78.22
G1 F1800 X119.407 Y82.284 E179.66876
G1 X119.468 Y82.345
G0 F6000 X119.452 Y82.824
G1 F1800 X115.345 Y78.717 E180.21763
G1 X115.284 Y78.656
G0 F6000 X115.346 Y79.213
G1 F1800 X119.496 Y83.363 E180.77225
G1 X119.557 Y83.424
G0 F6000 X119.541 Y83.903
G1 F1800 X115.348 Y79.71 E181.33261
G1 X115.287 Y79.649
G0 F6000 X115.351 Y80.207
G1 F1800 X119.586 Y84.443 E181.89866
G1 X119.647 Y84.504
G0 F6000 X119.631 Y84.982
G1 F1800 X115.353 Y80.704 E182.47039
G1 X115.292 Y80.643
G0 F6000 X115.355 Y81.202
G1 F1800 X119.675 Y85.522 E183.04772
G1 X119.736 Y85.583
G0 F6000 X119.72 Y86.062
G1 F1800 X115.357 Y81.699 E183.63081
G1 X115.296 Y81.638
G0 F6000 X115.358 Y82.195
G1 F1800 X119.765 Y86.602 E184.21977
G1 X119.826 Y86.663
G0 F6000 X119.81 Y87.141
G1 F1800 X115.36 Y82.692 E184.81442
G1 X115.299 Y82.631
G0 F6000 X115.363 Y83.189
G1 F1800 X119.855 Y87.681 E185.41475
G1 X119.916 Y87.742
G0 F6000 X119.899 Y88.221
G1 F1800 X115.365 Y83.686 E186.02075
G1 X115.304 Y83.625
G0 F6000 X115.367 Y84.183
G1 F1800 X119.944 Y88.76 E186.63244
G1 X120.005 Y88.821
G0 F6000 X119.989 Y89.301
G1 F1800 X115.034 Y84.346 E187.29464
G1 X114.973 Y84.285
G0 F6000 X114.561 Y84.367
G1 F1800 X120.034 Y89.84 E188.02607
G1 X120.095 Y89.901
G0 F6000 X120.078 Y90.38
G1 F1800 X114.087 Y84.388 E188.82679
G1 X114.026 Y84.327
G0 F6000 X113.612 Y84.409
G1 F1800 X120.124 Y90.92 E189.69701
G1 X120.185 Y90.981
G0 F6000 X120.168 Y91.46
G1 F1800 X109.906 Y81.197 E191.06852
G1 X109.845 Y81.136
G0 F6000 X109.916 Y80.713
G1 F1800 X113.364 Y84.16 E191.52925
G1 X113.425 Y84.221
G0 F6000 X113.319 Y83.621
G1 F1800 X109.993 Y80.295 E191.97375
G1 X109.932 Y80.234
G0 F6000 X110.07 Y79.876
G1 F1800 X113.274 Y83.08 E192.40194
G1 X113.335 Y83.141
G0 F6000 X113.229 Y82.541
G1 F1800 X110.147 Y79.459 E192.81383
G1 X110.086 Y79.398
G0 F6000 X110.223 Y79.04
G1 F1800 X113.185 Y82.001 E193.20962
G1 X113.246 Y82.062
G0 F6000 X113.139 Y81.461
G1 F1800 X110.3 Y78.622 E193.58903
G1 X110.239 Y78.561
G0 F6000 X110.377 Y78.203
G1 F1800 X113.095 Y80.922 E193.95234
G1 X113.156 Y80.983
G0 F6000 X113.05 Y80.382
G1 F1800 X110.454 Y77.785 E194.29934
G1 X110.393 Y77.724
G0 F6000 X110.53 Y77.367
G1 F1800 X113.005 Y79.842 E194.63011
G1 X113.066 Y79.903
G0 F6000 X112.961 Y79.302
G1 F1800 X110.607 Y76.949 E194.94464
G1 X110.546 Y76.888
G0 F6000 X110.684 Y76.53
G1 F1800 X112.916 Y78.763 E195.243
G1 X112.977 Y78.824
G0 F6000 X112.871 Y78.222
G1 F1800 X110.761 Y76.112 E195.52499
G1 X110.7 Y76.051
G0 F6000 X110.837 Y75.694
G1 F1800 X112.826 Y77.683 E195.7908
G1 X112.887 Y77.744
G0 F6000 X112.782 Y77.143
G1 F1800 X110.914 Y75.276 E196.04038
G1 X110.853 Y75.215
G0 F6000 X110.991 Y74.857
G1 F1800 X112.736 Y76.603 E196.27365
G1 X112.797 Y76.664
G0 F6000 X112.692 Y76.064
G1 F1800 X111.068 Y74.439 E196.49076
G1 X111.007 Y74.378
G0 F6000 X111.144 Y74.021
G1 F1800 X112.647 Y75.524 E196.69162
G1 X112.708 Y75.585
G0 F6000 X112.602 Y74.984
G1 F1800 X111.221 Y73.603 E196.87619
G1 X111.16 Y73.542
G0 F6000 X111.297 Y73.184
G1 F1800 X112.557 Y74.444 E197.04458
G1 X112.618 Y74.505
G0 F6000 X112.512 Y73.904
G1 F1800 X111.374 Y72.766 E197.19666
G1 X111.313 Y72.705
G0 F6000 X111.451 Y72.348
G1 F1800 X112.468 Y73.365 E197.33258
G1 X112.529 Y73.426
G0 F6000 X112.423 Y72.825
G1 F1800 X111.528 Y71.93 E197.45219
G1 X111.467 Y71.869
G0 F6000 X111.604 Y71.511
G1 F1800 X112.378 Y72.285 E197.55563
G1 X112.439 Y72.346
G0 F6000 X112.333 Y71.745
G1 F1800 X111.681 Y71.093 E197.64276
G1 X111.62 Y71.032
G0 F6000 X111.758 Y70.675
G1 F1800 X112.289 Y71.206 E197.71373
G1 X112.35 Y71.267
G0 F6000 X112.244 Y70.666
G1 F1800 X111.835 Y70.257 E197.76839
G0 F6000 X112.199 Y70.126
G1 F1800 X103.32 Y61.247 E198.955
G1 X103.259 Y61.186
G0 F6000 X103.397 Y60.829
G1 F1800 X112.154 Y69.587 E200.12538
G1 X112.215 Y69.648
G0 F6000 X111.538 Y69.96
G1 F1800 X103.243 Y61.666 E201.23389
G1 X103.182 Y61.605
G0 F6000 X103.166 Y62.083
G1 F1800 X110.932 Y69.849 E202.27176
G1 X110.993 Y69.91
G0 F6000 X110.326 Y69.738
G1 F1800 X103.09 Y62.502 E203.2388
G1 X103.029 Y62.441
G0 F6000 X103.014 Y62.921
G1 F1800 X109.72 Y69.627 E204.13501
G1 X109.781 Y69.688
G0 F6000 X109.114 Y69.516
G1 F1800 X102.937 Y63.339 E204.96053
G1 X102.876 Y63.278
G0 F6000 X102.86 Y63.757
G1 F1800 X108.507 Y69.404 E205.71521
G1 X108.568 Y69.465
G0 F6000 X107.901 Y69.293
G1 F1800 X102.783 Y64.175 E206.3992
G1 X102.722 Y64.114
